X:25
T:T016- Rocks of Cashel
S:Hime's 48 Original Irish Country Dances, c 1795
Q:1/4=120
L:1/8
M:C
K:D
DFA2B/A/G/F/A2|DFA2 (B/A/G/F/)E2|DFA2B/A/G/F/ Ac|\
dBAF GEEF::AF.d2(d/c/B/A/)d2|DFd2(d/c/B/A/) df|\
DFd2(d/c/B/A/).d2|dBAF GEEF:: D3/2F/ (3 FEF (3FDF (3FEF|\
D3/2F/ (3 FEF  GEEF|D3/2F/ (3 FEF (3FDF (3FEF|\
dBAF GEEF:|]

